!!!OTL: 283. Klagen des Zweiflers.
!!!COM: Himmel
!!!ODT: 1803
!!!ARE: Europa, Mitteleuropa, Deutschland
!!!SCT: B0283
!!!TXL: @@DE
!!!YEM: Copyright 1995, estate of Helmut Schaffrath.
**kern	**text
*ICvox	*
*Ivox	*
*M4/4	*
*met(c)	*
*clefG2	*
*k[f#]	*
*G:	*
!LO:TX:a:t=Langſam.	!
{8d	Mir
8g	auch
=1	=1
4.b	war
8b	ein
8.dd	Le-
16b	-ben
8a	auf-
8g	-ge-
=2	=2
8.gL	-gan-
16f#J	.
4f#	-gen,
4r}	.
{8a	wel-
8b	-ches
=3	=3
4.cc	reiche-
8cc	-be-
8.cc	-kränʒ-
16a	-te
8dd	Ta-
8cc	-ge-
=4	=4
(4cc	-bot;
4b)	.
4r}	.
{8b	an
8b	der
=5	=5
4.ee	Hoff-
8b	-nung
8.ff#	ju-
16b	-gend-
8b	-li-
8b	-chen
=6	=6
[2gg	Wan-
8gg]	.
8ee}	-gen
{8cc	blü-
8a	-the
=7	=7
8g	noch
8b	das
[4dd	er-
8dd]	.
16ccL	-ſte
16bJ	.
16ddL	Mor-
16ccJ	.
16b\L	-gen-
16aJ	.
=8	=8
(4a	-roth.
4g)	.
4r}	.
==	==
!!!AGN: Stimmungs - Lied
!!!GTL: Trauerlieder (Elegien) und Stimmungslieder
!!!ONB: ESAC (Essen Associative Code) Database: BOEHME
!!!AMT: simple quadruple
!!!AIN: vox
!!!EED: Helmut Schaffrath
!!!EEV: 1.0
!!@@COMMENT:"Gedicht von Chr. Aug. Tiedge, in deſſen Urania. Halle 1860. Melodie (aus dem erſten
!!Geſange) von Fr. H. Himmel, op. 18, mit Clavierbegleitung 1803 komponirt (f. Finks Hausſchatʒ.
!!Als Chor-Aria wurde das Lied von Chor und Currende 1805-1848 in Weimar vor den Häuſern
!!geſungen, wobei man 2. und 4. Strophe ausließ."
!!@@END:
!!!Text: Chr. Aug. Tiedge
!!!URL-scan: https://archive.org/details/BoehmeVtLieder1895/page/n239/mode/2up
!!!ENC: Anna Maria Matuszewska
!!!EEV: 2024/03/07
*-	*-
